packages/kaspersky-hexa-ui-icons/src/iconsSVGs/16x12/FlagBy.svg

<svg width="16" height="12" viewBox="0 0 16 12" fill="none" xmlns="http://www.w3.org/2000/svg">
<g clip-path="url(#clip0_41812_2772)">
<mask id="mask0_41812_2772" style="mask-type:luminance" maskUnits="userSpaceOnUse" x="0" y="0" width="16" height="12">
<rect width="16" height="12" rx="2" fill="white"/>
</mask>
<g mask="url(#mask0_41812_2772)">
<path fill-rule="evenodd" clip-rule="evenodd" d="M0 8H16V0H0V8Z" fill="#E54252"/>
<path fill-rule="evenodd" clip-rule="evenodd" d="M0 12H16V8H0V12Z" fill="#5CBE6B"/>
<path d="M2.28613 1.79883L1.9043 2.40039L2.28613 3V4.19824L1.9043 4.7998L2.28613 5.40039V6.59863L1.9043 7.2002L2.28613 7.80078V8.99902L1.9043 9.59961L2.28613 10.2002V12H0V0H2.28613V1.79883Z" fill="white"/>
<path d="M0.380859 9.59961L-0.380859 10.7998L-1.14258 9.59961L-0.380859 8.40039L0.380859 9.59961ZM0.380859 7.2002L-0.380859 8.40039L-1.14258 7.2002L-0.380859 6L0.380859 7.2002ZM0.380859 4.7998L-0.380859 6L-1.14258 4.7998L-0.380859 3.59961L0.380859 4.7998ZM0.380859 2.40039L-0.380859 3.59961L-1.14258 2.40039L-0.380859 1.2002L0.380859 2.40039Z" fill="#E54252"/>
<path d="M1.90491 10.7998L1.14319 12L0.380493 10.7998L1.14319 9.59961L1.90491 10.7998ZM1.90491 8.40039L1.14319 9.59961L0.380493 8.40039L1.14319 7.2002L1.90491 8.40039ZM1.90491 6L1.14319 7.2002L0.380493 6L1.14319 4.7998L1.90491 6ZM1.90491 3.59961L1.14319 4.7998L0.380493 3.59961L1.14319 2.40039L1.90491 3.59961ZM1.90491 1.2002L1.14319 2.40039L0.380493 1.2002L1.14319 0L1.90491 1.2002Z" fill="#E54252"/>
</g>
</g>
<defs>
<clipPath id="clip0_41812_2772">
<rect width="16" height="12" fill="white"/>
</clipPath>
</defs>
</svg>

<svg xmlns="http://www.w3.org/2000/svg" width="16" height="12" fill="none" viewBox="0 0 16 12"><g clip-path="url(#a)"><mask id="b" width="16" height="12" x="0" y="0" maskUnits="userSpaceOnUse" style="mask-type:luminance"><rect width="16" height="12" fill="#fff" rx="2"/></mask><g mask="url(#b)"><path fill="#e54252" fill-rule="evenodd" d="M0 8h16V0H0z" clip-rule="evenodd"/><path fill="#5cbe6b" fill-rule="evenodd" d="M0 12h16V8H0z" clip-rule="evenodd"/><path fill="#fff" d="m2.2861 1.7988-.3818.6016L2.2861 3v1.1982l-.3818.6016.3818.6006v1.1982l-.3818.6016.3818.6006V8.999l-.3818.6006.3818.6006V12H0V0h2.2861z"/><path fill="#e54252" d="m.381 9.6-.762 1.2-.762-1.2.762-1.199zm0-2.399L-.381 8.4l-.762-1.2.762-1.2zm0-2.4L-.381 6l-.762-1.2.762-1.2zm0-2.399L-.381 3.6l-.762-1.199.762-1.2zM1.905 10.8 1.143 12 .38 10.8l.763-1.2zm0-2.399L1.143 9.6.38 8.401l.763-1.2zm0-2.401-.762 1.2L.381 6l.763-1.2zm0-2.4-.762 1.2L.38 3.6l.763-1.199zm0-2.399-.762 1.2-.763-1.2L1.143 0z"/></g></g><defs><clipPath id="a"><path fill="#fff" d="M0 0h16v12H0z"/></clipPath></defs></svg>
